;FLAVOR:Marlin
;TIME:898
;Filament used: 0.559893m
;Layer height: 0.2
;MINX:89.651
;MINY:89.651
;MINZ:0.2
;MAXX:145.349
;MAXY:145.349
;MAXZ:10.6
;Generated with Cura_SteamEngine main
M140 S50
M105
M190 S50
M104 S200
M105
M109 S200
M82 ;absolute extrusion mode
; Ender 3 Custom Start G-code
G92 E0 ; Reset Extruder
G28 ; Home all axes
G1 Z2.0 F3000 ; Move Z Axis up little to prevent scratching of Heat Bed
G1 X0.1 Y20 Z0.3 F5000.0 ; Move to start position
G1 X0.1 Y200.0 Z0.3 F1500.0 E15 ; Draw the first line
G1 X0.4 Y200.0 Z0.3 F5000.0 ; Move to side a little
G1 X0.4 Y20 Z0.3 F1500.0 E30 ; Draw the second line
G92 E0 ; Reset Extruder
G1 Z2.0 F3000 ; Move Z Axis up little to prevent scratching of Heat Bed
G1 X5 Y20 Z0.3 F5000.0 ; Move over to prevent blob squish
G92 E0
G92 E0
G1 F2700 E-5
;LAYER_COUNT:53
;LAYER:0
M107
G0 F6000 X97.908 Y97.707 Z0.2
G0 X91.168 Y108.434
;TYPE:SKIRT
G1 F2700 E0
G1 F1200 X91.377 Y107.849 E0.02066
G1 X91.704 Y107.009 E0.05064
G1 X91.871 Y106.604 E0.06521
G1 X92.169 Y105.929 E0.08975
G1 X92.589 Y105.047 E0.12225
G1 X92.857 Y104.529 E0.14164
G1 X93.389 Y103.562 E0.17835
G1 X93.703 Y103.035 E0.19876
G1 X94.082 Y102.428 E0.22256
G1 X94.454 Y101.862 E0.24508
G1 X95.018 Y101.063 E0.27761
G1 X95.627 Y100.263 E0.31105
G1 X96.031 Y99.762 E0.33246
G1 X96.462 Y99.253 E0.35464
G1 X97.185 Y98.452 E0.39053
G1 X97.431 Y98.191 E0.40246
G1 X97.908 Y97.707 E0.42506
G1 X98.324 Y97.303 E0.44435
G1 X98.857 Y96.809 E0.46852
G1 X99.532 Y96.222 E0.49827
G1 X100.059 Y95.787 E0.521
G1 X100.83 Y95.19 E0.55343
G1 X101.606 Y94.633 E0.5852
G1 X102.315 Y94.157 E0.61361
G1 X102.846 Y93.818 E0.63456
G1 X103.757 Y93.279 E0.66977
G1 X104.316 Y92.968 E0.69104
G1 X105.179 Y92.524 E0.72332
G1 X105.814 Y92.221 E0.74672
G1 X106.765 Y91.804 E0.78126
G1 X107.485 Y91.512 E0.8071
G1 X108.257 Y91.227 E0.83447
G1 X109.144 Y90.934 E0.86554
G1 X110.289 Y90.599 E0.90522
G1 X110.896 Y90.444 E0.92606
G1 X111.832 Y90.233 E0.95797
G1 X112.546 Y90.095 E0.98216
G1 X113.139 Y89.995 E1.00216
G1 X113.829 Y89.894 E1.02536
G1 X114.189 Y89.849 E1.03742
G1 X115.241 Y89.741 E1.0726
G1 X115.88 Y89.697 E1.0939
G1 X116.852 Y89.657 E1.12626
G1 X117.565 Y89.651 E1.14997
G1 X118.183 Y89.659 E1.17053
G1 X118.808 Y89.68 E1.19133
G1 X119.888 Y89.754 E1.22733
G1 X120.509 Y89.814 E1.24808
G1 X121.702 Y89.973 E1.28811
G1 X122.066 Y90.029 E1.30036
G1 X122.753 Y90.15 E1.32356
G1 X123.153 Y90.229 E1.33712
G1 X124.194 Y90.466 E1.37263
G1 X125.124 Y90.713 E1.40464
G1 X125.713 Y90.89 E1.42509
G1 X126.566 Y91.168 E1.45493
G1 X127.483 Y91.5 E1.48737
G1 X128.304 Y91.831 E1.51681
G1 X128.945 Y92.112 E1.54009
G1 X129.907 Y92.566 E1.57547
G1 X130.464 Y92.854 E1.59633
G1 X131.45 Y93.397 E1.63377
G1 X132.03 Y93.742 E1.65621
G1 X132.775 Y94.211 E1.68549
G1 X133.345 Y94.597 E1.70839
G1 X133.89 Y94.984 E1.73062
G1 X134.453 Y95.404 E1.75398
G1 X135.238 Y96.031 E1.7874
G1 X136.001 Y96.685 E1.82082
G1 X136.815 Y97.436 E1.85766
G1 X137.273 Y97.889 E1.87908
G1 X137.915 Y98.558 E1.90992
G1 X138.419 Y99.116 E1.93493
G1 X138.778 Y99.533 E1.95323
G1 X139.285 Y100.149 E1.97977
G1 X139.553 Y100.49 E1.99419
G1 X139.977 Y101.054 E2.01766
G1 X140.316 Y101.532 E2.03715
G1 X141.078 Y102.677 E2.0829
G1 X141.416 Y103.23 E2.10445
G1 X141.851 Y103.985 E2.13344
G1 X142.214 Y104.662 E2.15899
G1 X142.473 Y105.174 E2.17807
G1 X142.766 Y105.785 E2.20061
G1 X143.208 Y106.791 E2.23715
G1 X143.485 Y107.479 E2.26182
G1 X143.873 Y108.544 E2.29952
G1 X144.069 Y109.149 E2.32067
G1 X144.399 Y110.281 E2.35989
G1 X144.564 Y110.929 E2.38213
G1 X144.698 Y111.508 E2.4019
G1 X144.833 Y112.155 E2.42388
G1 X145.005 Y113.143 E2.45724
G1 X145.112 Y113.882 E2.48207
G1 X145.225 Y114.877 E2.51538
G1 X145.257 Y115.222 E2.5269
G1 X145.303 Y115.881 E2.54887
G1 X145.332 Y116.493 E2.56925
G1 X145.349 Y117.263 E2.59487
G1 X145.342 Y118.158 E2.62464
G1 X145.32 Y118.801 E2.64604
G1 X145.3 Y119.151 E2.6577
G1 X145.216 Y120.223 E2.69346
G1 X145.137 Y120.927 E2.71702
G1 X145 Y121.905 E2.74987
G1 X144.856 Y122.718 E2.77733
G1 X144.702 Y123.468 E2.8028
G1 X144.573 Y124.022 E2.82171
G1 X144.343 Y124.907 E2.85213
G1 X144.171 Y125.515 E2.87314
G1 X143.854 Y126.503 E2.90765
G1 X143.65 Y127.083 E2.9281
G1 X143.28 Y128.033 E2.96201
G1 X142.884 Y128.955 E2.99539
G1 X142.461 Y129.852 E3.02837
G1 X142.16 Y130.438 E3.05028
G1 X141.659 Y131.354 E3.08501
G1 X141.313 Y131.939 E3.10761
G1 X140.932 Y132.552 E3.13162
G1 X140.57 Y133.105 E3.1536
G1 X139.998 Y133.919 E3.18669
G1 X139.771 Y134.227 E3.19942
G1 X139.43 Y134.667 E3.21793
G1 X138.995 Y135.207 E3.241
G1 X138.52 Y135.769 E3.26547
G1 X137.849 Y136.513 E3.29879
G1 X137.414 Y136.97 E3.31978
G1 X136.705 Y137.668 E3.35287
G1 X136.184 Y138.152 E3.37652
G1 X135.405 Y138.829 E3.41085
G1 X134.95 Y139.206 E3.4305
G1 X134.639 Y139.451 E3.44367
G1 X133.825 Y140.064 E3.47756
G1 X133.288 Y140.442 E3.4994
G1 X132.812 Y140.762 E3.51848
G1 X132.243 Y141.127 E3.54097
G1 X131.278 Y141.7 E3.57829
G1 X130.675 Y142.036 E3.60125
G1 X129.847 Y142.464 E3.63225
G1 X129.306 Y142.724 E3.65222
G1 X128.155 Y143.229 E3.69402
G1 X127.435 Y143.519 E3.71984
G1 X127.005 Y143.679 E3.7351
G1 X126.337 Y143.911 E3.75862
G1 X125.858 Y144.065 E3.77535
G1 X124.704 Y144.402 E3.81534
G1 X124.045 Y144.57 E3.83796
G1 X123.219 Y144.757 E3.86613
G1 X122.776 Y144.846 E3.88116
G1 X121.891 Y145.001 E3.91104
G1 X121.201 Y145.103 E3.93424
G1 X120.166 Y145.221 E3.96888
G1 X119.554 Y145.274 E3.98932
G1 X118.451 Y145.332 E4.02605
G1 X117.779 Y145.349 E4.04841
G1 X116.792 Y145.341 E4.08124
G1 X116.134 Y145.317 E4.10314
G1 X115.192 Y145.254 E4.13454
G1 X114.503 Y145.188 E4.15756
G1 X114.147 Y145.146 E4.16948
G1 X113.094 Y144.999 E4.20485
G1 X112.472 Y144.89 E4.22585
G1 X111.806 Y144.76 E4.24842
G1 X111.16 Y144.619 E4.27041
G1 X110.804 Y144.532 E4.2826
G1 X109.749 Y144.25 E4.31892
G1 X109.102 Y144.054 E4.34141
G1 X108.558 Y143.876 E4.36044
G1 X107.894 Y143.641 E4.38387
G1 X106.97 Y143.281 E4.41685
G1 X106.021 Y142.873 E4.45121
G1 X105.134 Y142.455 E4.48382
G1 X104.598 Y142.179 E4.50388
G1 X103.631 Y141.65 E4.54054
G1 X103.088 Y141.328 E4.56153
G1 X102.157 Y140.744 E4.59809
G1 X101.618 Y140.378 E4.61976
G1 X100.87 Y139.84 E4.6504
G1 X100.321 Y139.417 E4.67345
G1 X99.728 Y138.939 E4.69879
G1 X99.224 Y138.513 E4.72074
G1 X98.464 Y137.827 E4.75479
G1 X97.975 Y137.36 E4.77728
G1 X97.075 Y136.434 E4.82023
G1 X96.624 Y135.933 E4.84265
G1 X95.989 Y135.189 E4.87518
G1 X95.412 Y134.464 E4.906
G1 X94.976 Y133.881 E4.93021
G1 X94.656 Y133.429 E4.94863
G1 X93.971 Y132.4 E4.98975
G1 X93.64 Y131.862 E5.01075
G1 X93.181 Y131.073 E5.04111
G1 X92.823 Y130.409 E5.0662
G1 X92.365 Y129.495 E5.10021
G1 X92.078 Y128.871 E5.12305
G1 X91.689 Y127.959 E5.15603
G1 X91.423 Y127.277 E5.18038
G1 X91.243 Y126.782 E5.1979
G1 X90.92 Y125.806 E5.23209
G1 X90.611 Y124.75 E5.26868
G1 X90.454 Y124.137 E5.28973
G1 X90.303 Y123.489 E5.31186
G1 X90.169 Y122.851 E5.33354
G1 X89.988 Y121.808 E5.36875
G1 X89.894 Y121.168 E5.39027
G1 X89.77 Y120.067 E5.42712
G1 X89.72 Y119.485 E5.44655
G1 X89.668 Y118.496 E5.47949
G1 X89.651 Y117.767 E5.50374
G1 X89.659 Y116.79 E5.53624
G1 X89.679 Y116.207 E5.55564
G1 X89.753 Y115.118 E5.59194
G1 X89.817 Y114.464 E5.6138
G1 X89.971 Y113.308 E5.65259
G1 X90.025 Y112.953 E5.66453
G1 X90.155 Y112.215 E5.68945
G1 X90.289 Y111.561 E5.71166
G1 X90.464 Y110.812 E5.73724
G1 X90.625 Y110.193 E5.75851
G1 X90.793 Y109.601 E5.77898
G1 X91.168 Y108.434 E5.81975
G1 F2700 E0.81975
G0 F6000 X90.451 Y117.752
G1 F2700 E5.81975
G1 F1200 X90.459 Y116.801 E5.85138
G1 X90.497 Y115.913 E5.88094
G1 X90.582 Y114.839 E5.91678
G1 X90.649 Y114.248 E5.93656
G1 X90.763 Y113.416 E5.96449
G1 X90.889 Y112.647 E5.99041
G1 X91.015 Y111.994 E6.01253
G1 X91.238 Y111.013 E6.04599
G1 X91.399 Y110.394 E6.06726
G1 X91.561 Y109.826 E6.08691
G1 X91.929 Y108.681 E6.12691
G1 X92.123 Y108.139 E6.14606
G1 X92.45 Y107.299 E6.17604
G1 X92.784 Y106.511 E6.2045
G1 X93.144 Y105.733 E6.23301
G1 X93.443 Y105.133 E6.25531
G1 X93.907 Y104.272 E6.28784
G1 X94.382 Y103.459 E6.31916
G1 X94.761 Y102.852 E6.34296
G1 X95.305 Y102.038 E6.37552
G1 X95.853 Y101.28 E6.40663
G1 X96.25 Y100.765 E6.42826
G1 X96.654 Y100.264 E6.44967
G1 X97.069 Y99.773 E6.47105
G1 X97.776 Y98.991 E6.50611
G1 X98.466 Y98.281 E6.53904
G1 X98.882 Y97.877 E6.55833
G1 X99.397 Y97.4 E6.58168
G1 X100.054 Y96.828 E6.61065
G1 X100.838 Y96.19 E6.64427
G1 X101.315 Y95.826 E6.66423
G1 X101.765 Y95.497 E6.68277
G1 X102.761 Y94.822 E6.72278
G1 X103.272 Y94.495 E6.74296
G1 X104.16 Y93.97 E6.77727
G1 X104.991 Y93.516 E6.80877
G1 X105.824 Y93.1 E6.83974
G1 X106.414 Y92.828 E6.86135
G1 X107.397 Y92.407 E6.89691
G1 X108.037 Y92.158 E6.91975
G1 X108.831 Y91.874 E6.9478
G1 X109.372 Y91.7 E6.9667
G1 X110.171 Y91.462 E6.99443
G1 X111.077 Y91.223 E7.02559
G1 X111.681 Y91.083 E7.04622
G1 X112.38 Y90.939 E7.06995
G1 X113.272 Y90.784 E7.10007
G1 X114.275 Y90.644 E7.13375
G1 X115.301 Y90.539 E7.16805
G1 X115.918 Y90.496 E7.18862
G1 X116.864 Y90.457 E7.22011
G1 X117.555 Y90.451 E7.2431
G1 X118.173 Y90.459 E7.26365
G1 X118.776 Y90.48 E7.28372
G1 X119.828 Y90.552 E7.31879
G1 X120.426 Y90.61 E7.33878
G1 X121.593 Y90.765 E7.37793
G1 X122.598 Y90.935 E7.41183
G1 X123.258 Y91.069 E7.43423
G1 X123.993 Y91.24 E7.45933
G1 X124.899 Y91.481 E7.49051
G1 X125.465 Y91.651 E7.51017
G1 X126.628 Y92.036 E7.55092
G1 X127.188 Y92.243 E7.57077
G1 X127.707 Y92.449 E7.58935
G1 X128.353 Y92.723 E7.61268
G1 X129.23 Y93.127 E7.6448
G1 X129.545 Y93.28 E7.65645
G1 X130.082 Y93.557 E7.67654
G1 X131.044 Y94.086 E7.71306
G1 X131.607 Y94.421 E7.73485
G1 X132.331 Y94.877 E7.76331
G1 X132.882 Y95.249 E7.78542
G1 X133.427 Y95.636 E7.80765
G1 X133.969 Y96.042 E7.83017
G1 X134.982 Y96.858 E7.87344
G1 X135.462 Y97.276 E7.89461
G1 X136.256 Y98.009 E7.93055
G1 X136.699 Y98.446 E7.95125
G1 X137.325 Y99.097 E7.98129
G1 X137.813 Y99.638 E8.00552
G1 X138.172 Y100.055 E8.02382
G1 X138.665 Y100.654 E8.04962
G1 X139.337 Y101.535 E8.08648
G1 X139.652 Y101.978 E8.10456
G1 X140.398 Y103.1 E8.14937
G1 X140.724 Y103.632 E8.17012
G1 X141.148 Y104.368 E8.19837
G1 X141.5 Y105.023 E8.2231
G1 X141.759 Y105.535 E8.24219
G1 X142.182 Y106.436 E8.27529
G1 X142.596 Y107.404 E8.31031
G1 X142.742 Y107.773 E8.32351
G1 X143.016 Y108.514 E8.34979
G1 X143.205 Y109.07 E8.36932
G1 X143.534 Y110.157 E8.40709
G1 X143.715 Y110.827 E8.43017
G1 X143.918 Y111.688 E8.4596
G1 X144.049 Y112.313 E8.48084
G1 X144.262 Y113.572 E8.52331
G1 X144.357 Y114.29 E8.54739
G1 X144.459 Y115.283 E8.5806
G1 X144.504 Y115.919 E8.6018
G1 X144.533 Y116.531 E8.62218
G1 X144.549 Y117.275 E8.64693
G1 X144.542 Y118.149 E8.676
G1 X144.521 Y118.768 E8.6966
G1 X144.42 Y120.139 E8.74232
G1 X144.344 Y120.82 E8.76512
G1 X144.211 Y121.773 E8.79712
G1 X144.073 Y122.557 E8.8236
G1 X143.919 Y123.307 E8.84906
G1 X143.799 Y123.821 E8.86662
G1 X143.569 Y124.706 E8.89703
G1 X143.403 Y125.291 E8.91726
G1 X142.995 Y126.539 E8.96093
G1 X142.789 Y127.099 E8.98077
G1 X142.413 Y128.037 E9.01438
G1 X142.158 Y128.618 E9.03549
G1 X141.747 Y129.491 E9.06758
G1 X141.456 Y130.058 E9.08878
G1 X141.129 Y130.663 E9.11165
G1 X140.782 Y131.27 E9.13491
G1 X140.252 Y132.129 E9.16848
G1 X139.903 Y132.663 E9.18969
G1 X139.346 Y133.456 E9.22193
G1 X138.807 Y134.165 E9.25155
G1 X138.372 Y134.705 E9.27461
G1 X137.912 Y135.249 E9.29831
G1 X137.258 Y135.974 E9.33078
G1 X136.838 Y136.415 E9.35104
G1 X136.147 Y137.095 E9.38328
G1 X135.407 Y137.773 E9.41666
G1 X134.884 Y138.223 E9.43961
G1 X134.444 Y138.587 E9.4586
G1 X134.155 Y138.815 E9.47085
G1 X133.36 Y139.413 E9.50393
G1 X132.842 Y139.778 E9.52501
G1 X132.366 Y140.098 E9.54409
G1 X131.815 Y140.451 E9.56585
G1 X130.873 Y141.01 E9.60228
G1 X130.29 Y141.335 E9.62448
G1 X129.484 Y141.751 E9.65465
G1 X128.964 Y142.001 E9.67384
G1 X127.837 Y142.495 E9.71477
G1 X127.142 Y142.775 E9.73969
G1 X126.742 Y142.923 E9.75388
G1 X126.074 Y143.155 E9.77739
G1 X125.63 Y143.298 E9.79291
G1 X124.818 Y143.539 E9.82108
G1 X124.146 Y143.721 E9.84424
G1 X123.356 Y143.908 E9.87124
G1 X122.618 Y144.061 E9.89631
G1 X121.461 Y144.258 E9.93534
G1 X120.783 Y144.349 E9.9581
G1 X120.079 Y144.426 E9.98165
G1 X119.49 Y144.477 E10.00131
G1 X118.413 Y144.533 E10.03718
G1 X117.764 Y144.549 E10.05878
G1 X116.804 Y144.541 E10.09071
G1 X116.168 Y144.518 E10.11187
G1 X115.25 Y144.456 E10.14248
G1 X114.253 Y144.353 E10.17581
G1 X113.227 Y144.21 E10.21027
G1 X112.625 Y144.105 E10.23059
G1 X111.959 Y143.975 E10.25316
G1 X111.337 Y143.839 E10.27434
G1 X110.28 Y143.567 E10.31064
G1 X109.351 Y143.293 E10.34285
G1 X108.517 Y143.016 E10.37208
G1 X108.165 Y142.889 E10.38453
G1 X107.264 Y142.537 E10.4167
G1 X106.606 Y142.259 E10.44046
G1 X105.495 Y141.741 E10.48123
G1 X104.978 Y141.475 E10.50057
G1 X104.036 Y140.959 E10.53629
G1 X103.51 Y140.648 E10.55662
G1 X102.601 Y140.078 E10.5923
G1 X102.082 Y139.726 E10.61316
G1 X101.354 Y139.203 E10.64297
G1 X100.823 Y138.794 E10.66527
G1 X99.99 Y138.117 E10.70097
G1 X99.508 Y137.697 E10.72223
G1 X99.003 Y137.236 E10.74498
G1 X98.531 Y136.785 E10.76669
G1 X97.86 Y136.1 E10.79858
G1 X97.445 Y135.653 E10.81887
G1 X96.794 Y134.905 E10.85185
G1 X96.303 Y134.306 E10.87761
G1 X96.053 Y133.985 E10.89114
G1 X95.617 Y133.402 E10.91536
G1 X95.32 Y132.983 E10.93244
G1 X94.649 Y131.976 E10.97269
G1 X94.33 Y131.458 E10.99292
G1 X94.01 Y130.912 E11.01397
G1 X93.708 Y130.371 E11.03458
G1 X93.537 Y130.048 E11.04673
G1 X93.09 Y129.155 E11.07995
G1 X92.812 Y128.553 E11.102
G1 X92.553 Y127.955 E11.12368
G1 X92.28 Y127.281 E11.14786
G1 X91.995 Y126.509 E11.17523
G1 X91.687 Y125.577 E11.20788
G1 X91.384 Y124.546 E11.24362
G1 X91.233 Y123.956 E11.26388
G1 X91.082 Y123.308 E11.28601
G1 X90.954 Y122.693 E11.3069
G1 X90.777 Y121.676 E11.34123
G1 X90.686 Y121.057 E11.36204
G1 X90.566 Y119.982 E11.39802
G1 X90.517 Y119.422 E11.41672
G1 X90.467 Y118.459 E11.44879
G1 X90.451 Y117.752 E11.47231
G0 F6000 X90.051 Y117.76
G1 F1200 X90.059 Y116.795 E11.50441
G1 X90.079 Y116.224 E11.52341
G1 X90.152 Y115.147 E11.55931
G1 X90.184 Y114.796 E11.57104
G1 X90.253 Y114.194 E11.59119
G1 X90.42 Y113.02 E11.63063
G1 X90.548 Y112.293 E11.65518
G1 X90.679 Y111.649 E11.67704
G1 X90.851 Y110.913 E11.70218
G1 X91.012 Y110.294 E11.72345
G1 X91.177 Y109.713 E11.74354
G1 X91.549 Y108.558 E11.7839
G1 X91.75 Y107.994 E11.80382
G1 X92.077 Y107.154 E11.8338
G1 X92.238 Y106.764 E11.84783
G1 X92.532 Y106.099 E11.87201
G1 X92.945 Y105.229 E11.90404
G1 X93.209 Y104.72 E11.92311
G1 X93.734 Y103.765 E11.95936
G1 X94.043 Y103.247 E11.97942
G1 X94.422 Y102.64 E12.00322
G1 X94.787 Y102.084 E12.02535
G1 X95.344 Y101.296 E12.05744
G1 X95.758 Y100.744 E12.08039
G1 X96.548 Y99.766 E12.12221
G1 X96.981 Y99.269 E12.14413
G1 X97.481 Y98.721 E12.1688
G1 X97.978 Y98.202 E12.1927
G1 X98.603 Y97.59 E12.2218
G1 X99.374 Y96.885 E12.25654
G1 X99.987 Y96.362 E12.28335
G1 X100.596 Y95.872 E12.30934
G1 X101.073 Y95.508 E12.3293
G1 X101.531 Y95.173 E12.34817
G1 X102.538 Y94.489 E12.38866
G1 X103.059 Y94.156 E12.40923
G1 X103.958 Y93.624 E12.44397
G1 X104.81 Y93.159 E12.47626
G1 X105.654 Y92.738 E12.50763
G1 X106.254 Y92.461 E12.52961
G1 X106.924 Y92.17 E12.5539
G1 X107.632 Y91.884 E12.5793
G1 X108.706 Y91.494 E12.6173
G1 X109.258 Y91.317 E12.63658
G1 X110.39 Y90.986 E12.67581
G1 X110.987 Y90.834 E12.6963
G1 X111.91 Y90.625 E12.72777
G1 X112.612 Y90.49 E12.75155
G1 X113.487 Y90.346 E12.78105
G1 X114.232 Y90.247 E12.80604
G1 X115.271 Y90.14 E12.84078
G1 X115.899 Y90.097 E12.86172
G1 X116.858 Y90.057 E12.89364
G1 X117.56 Y90.051 E12.91699
G1 X118.178 Y90.059 E12.93755
G1 X118.792 Y90.08 E12.95798
G1 X119.858 Y90.153 E12.99352
G1 X120.467 Y90.212 E13.01387
G1 X121.648 Y90.369 E13.0535
